X:9.2
T: March of the 37th Regiment
M: C
L: 1/8
K: G
S:William Killey Flute Book 1825
N:Microfilm in Manx Museum Library
N:Transcription by Ian Radcliffe 2021
G>B|d3e e/d/c/B/ d/c/B/A/| G2 G>G G2 A>c | B/G/d/B/ e/d/c/B/|d3B A2 G/A/B/c/ | d3e e/d/c/B/ d/c/B/A/ | 
G2G>G G2 A>c | B>de>c B>d d/c/B/A/ | G2 G>G G2:||:A>A|A3B dcBA|B3c edcB | BGdB edcB | BGdB edcB | 
d3B AcBA | B3B BAcB | B3d dced | d>g (3(fge) (3(dec) (3(BcA)|A3 AA A2:||
